X:32
T:Da Ferry Reel
Z:Jack Campin, 2006, http://www.campin.me.uk/
M:C|
L:1/8
Q:1/2=108
K:D
A|d2dA d2d2|efed c2A2|BcdB ABAF|G2E2 E3
A|d2dA d2d2|efed c2A2|BcdB AGFE|D2d2 d3 :|
e|f2fA f2fA|fgag fedf|e2eA e2eA|efed cBAd|
  f2fA f2fA|fgag fedf|efgf edcB|A2d2 d3 :|
